X: 1134
T: How Can You Lovely Nancy 
T: Lovely Nancy
S: Benjamin Cooke MS., circa 1770, F.Kidson Coll.
M: 3/4
L: 1/8
Q: 100
R: air
K: D Major
|: f>e | 
d2 d2 d>f | e2 e2 e>g | f2 d'a gf | e4 f>e |
d2 d2 d>f | e2 e2 d'b | ab af ef | d4 :|
|: f>g | 
a2 a2 d'b | a4 f>g | a2 a2 d'a | e4 f>e |
 d2 d2 af | e2e2 g>{a}b | abafef | d4 :|
